X: 09093
T: RAVEN LODGE
C: Bob McQuillen 23 Nov  92
B: Bob's Note Book 9 #93
%R: reel
Z: 2018 John Chambers <jc:trillian.mit.edu>
L: 1/8
M: C
K: Am
AG |\
EGAc A2cA | EGAc BGAG | EGAc B2cd | ecdc BGAG |
EGAc B2cA | EGAc | AGce | egag edce | gedc BG :|
|: cd |\
egag a2ed | cedc AGcd | egag e2cd | egag eceg |
ageg a2ag | egec d2cd | e2ce dcAG | EAAG A2 :|
%%begintext align
%% If you ever danced in Fairbanks, AK, afew years
%% back, you probably danced in Susan MacNeil's Raven Lodge. It was a good big building
%% made entirely out of enormous cedar logs; really, it was just beautiful, and
%% it had a huge wood furnace heating it that took great four foot logs with ease.
%% What a place! I think that was first time I'd played with fine Alaska fiddler
%% Rex Blazer, and we sure had a good time together. A woman whose name I can't recall
%% played flute, and we had so much fun they should have named us the "Gleesome
%% Threesome"!
%%endtext

%%sep 1 1 500

%%sep 1 1 500

